X:1
T:Le vray amy
T:Jean de Castro
T:Source : La fleur des chansons à 3---Louvain---P.Phalèse---1574. Editor : André Vierendeels (10/09/18) Notes : Original clefs : C1, C3, C4 Original note values have been halved Editorial accidentals above the staff m16 inT1 voice : "E" notated as quarter in original print
T:Le vray amy
T:©
T:©
T:©
T:©
C:Jean de Castro
Z:©
%%score [ 1 [ 2 3 ] ]
L:1/8
Q:1/4=120
M:2/2
K:C
V:1 treble nm="Alto" snm="A"
V:2 treble-8 nm="Tenor 1" snm="T 1"
V:3 treble-8 nm="Tenor 2" snm="T 2"
V:1
 z8 | z8 | z4 A4 | c6 G2 | A4 z2 D2 | G2 E2 F2 A2 | ^G2 A2 c2 BA | G2 A4 ^G2 | A2 z c A2 c2 | %9
w: ||Le|vray a-|my, le|vray a- my ne|s'es- ton- ne _ _|_ _ de-|rien, et d'au- tant|
 G2 z G E2 G2 | CG E2 A2 G2- | GF/E/ D2 z2 G2 | E2 G4 C2 | z2 G2 AcBB | A2 GG AcBc | %15
w: plus, et d'au- tant|plus, et d'au- tant plus,|_ _ _ _ et|d'au- tant plus|que dan- ger le tour-|men- te, que dan- ger le tour-|
 A2 G3 F/E/ D2 | E2 E2 c4 | A2 B2 z4 | G3 G E A2 ^G | A4 ^G2 z G | A2 E2 E3 F | G4 z2 G2- | %22
w: men- * * * *|te, plus en|e- spoir|fer- me- té le con-|ten- te, en|en- du- rant, _|_ tous|
 G2 F4 E2 | E2 C2 D2 z D | EFGA B2 z G | A c2 B c2 z2 | z A^GA EF E2 | z FEF DDEF | %28
w: _ maux pour|un seul bien, qui|ne m'en- tend as- sez, ie|m'en- * tens bien,|qui ne m'en- tend as- sez,|qui ne m'en- tend as- sez, ie|
 E2 D3 ^C/B,/ C2 | DDFF EA A2 | z A^GA ^FA G2 | E4 ^F2 A2- | AG/^F/ ^G2 A4- | A8 |] %34
w: m'en- tens _ _ _|bien, qui ne m'en- tend as- sez,|qui ne m'en- tend as- sez|ie m'en- tens|_ _ _ _ bien|_|
V:2
 z4 e4 | g4 c4 | d2 g4 f2- | f2 e2 e4 | z2 A2 B2 B2 | c2 c2 c2 d2 | e2 f2 e3 c | B2 A2 B2 B2 | %8
w: Le|vray a-|my, le vray|_ a- my,|le vray a-|my ne e'es- ton-|ne de rien, ne|s'es- ton- ne de|
 A2 z e f2 e2 | e2 z e c2 e2 | g4 z2 e2 | d2 B2 cGBd | c4 B2 AG | z deg fe d2 | c2 z2 z c d2 | %15
w: rien, et d'au- tant|plus, et d'au- tant|plus, et|d'au- tant plus, que dan- ger|le tour- men- te,|que dan- ger le tour- men-|te, que dan-|
 f2 ec B c3/2B/4A/4B | c2 g2 e2 c2 | d2 d3 d B2- | B2 c4 B2 | A4 B4 | z2 c2 B2 A2 | B2 e4 c2- | %22
w: ger le tour- men- * * * *|te, plus en e-|spoir fer- me- té|_ le con-|ten- te,|en en- du-|rant tous maux|
 c2 d2 B4 | c4 B2 z B | cdef g3 e | f2 d2 cedc | BcBd ^c d3/2c/4B/4c | d2 z2 z d^cd | AAAf e2 e2 | %29
w: _ pour un|seul bien, qui|ne m'en- tend as- sez, ie|m'en- tens bien, qui ne m'en-|tend as- sez, ie m'en- tens _ _ _|bien, qui ne m'en-|tend as- sez, ie m'en- tens|
 f2 z d ^cdAf | eABc d2 z G | cA^cc d3 A | c2 B2 ^c4- | c8 |] %34
w: bien, qui ne m'en- tend as-|sez, ie m'en- tens bien, qui|ne m'en- tend as- sez, ie|m'en- tens bien.|_|
V:3
 A4 c4- | c2 G2 A4 | z2 G2 d4 | z2 A2 c4 | F4 G4 | z2 C2 F2 F2 | E2 D2 E4- | E8 | z2 A2 F2 A2 | %9
w: Le vray|_ a- my,|le vray,|le vray|a- my,|ne s'es- ton-|ne de rien,|_|et d'au- tant|
 c4 z4 | z2 c2 A2 c2 | G2 z G E2 G2 | C2 z C EGFE | D2 C2 z2 z G | AccB A2 GF- | F/G/A/B/ c2 G4 | %16
w: plus,|et d'au- tant|plus, et d'au- tant|plus, que dan- ger le tour-|men- te, que|dan- ger le tour- men- * *|* * * * * te,|
 z2 c4 A2 |"^-natural" ^F2 G4 G2- | GG E2 A2 E2 | F4 E4 | z2 A2 ^G2 A2 | E4 c4 | F4 G4 | A2 A2 G4 | %24
w: plus en|e- spoir fer-|* me- té le con-|ten- te|en en- du-|rant tous|maux pour|un seul bien,|
 z4 z2 c2 | F2 G2 A2 z A | ^GAED A4 | z dcA _BBAD | ^C2 D2 A4 | z4 z d^cd | AFEA D2 E2 | %31
w: ie|m'en- tens bien, qui|ne m'en- tend as- sez,|qui ne m'en- tend as- sez, ie|m'en- tens bien,|qui ne m'en-|tend as- sez, ie m'en- tens|
 A2 z A D4 | E4 A4- | A8 |] %34
w: bien ie m'en-|tens bien.|_|

